svgs/soundcore.svg

<svg width="192" height="192" viewBox="0 0 192 192" fill="none" xmlns="http://www.w3.org/2000/svg">
<path d="M74.0692 146.393C87.3099 146.393 98.0435 135.659 98.0435 122.419C98.0435 109.178 87.3099 98.4445 74.0692 98.4445C60.8286 98.4445 50.095 109.178 50.095 122.419C50.095 135.659 60.8286 146.393 74.0692 146.393Z" stroke="black" stroke-width="12.0001" stroke-miterlimit="0" stroke-linecap="round" stroke-linejoin="round"/>
<path d="M121.135 132.306C118.972 142.484 113.533 151.671 105.651 158.463C97.7688 165.255 87.878 169.276 77.4928 169.911C67.1076 170.546 56.8005 167.76 48.1494 161.98C39.4983 156.2 32.98 147.743 29.5926 137.905C26.2052 128.068 26.1354 117.391 29.3937 107.51C32.652 97.6284 39.059 89.0873 47.6337 83.1941C56.2084 77.3009 66.4782 74.3803 76.8708 74.8795C87.2634 75.3787 97.206 79.2701 105.176 85.9581" stroke="black" stroke-width="12.0001" stroke-miterlimit="0" stroke-linecap="round" stroke-linejoin="round"/>
<path d="M105.176 85.958L108.944 65.7016C108.944 65.7016 120.432 62.4284 133.991 59.933" stroke="black" stroke-width="12.0001" stroke-miterlimit="0" stroke-linecap="round" stroke-linejoin="round"/>
<path d="M121.135 132.306L133.991 59.933" stroke="black" stroke-width="12.0001" stroke-miterlimit="0" stroke-linecap="round" stroke-linejoin="round"/>
<path d="M115.005 28.3807L111.432 50.7608" stroke="black" stroke-width="12.0001" stroke-miterlimit="0" stroke-linecap="round" stroke-linejoin="round"/>
<path d="M115.005 28.3807C115.005 28.3807 136.854 22.0764 164.478 22" stroke="black" stroke-width="12.0001" stroke-miterlimit="0" stroke-linecap="round" stroke-linejoin="round"/>
<path d="M164.478 22.0031L161.151 43.5768" stroke="black" stroke-width="12.0001" stroke-miterlimit="0" stroke-linecap="round" stroke-linejoin="round"/>
<path d="M111.432 50.7608C111.432 50.7608 135.024 43.5908 161.151 43.5768" stroke="black" stroke-width="12.0001" stroke-miterlimit="0" stroke-linecap="round" stroke-linejoin="round"/>
</svg>

<svg width="192" height="192" fill="none" xmlns="http://www.w3.org/2000/svg"><path d="M74.07 146.393c13.24 0 23.974-10.734 23.974-23.974 0-13.241-10.734-23.974-23.975-23.974-13.24 0-23.974 10.733-23.974 23.974 0 13.24 10.734 23.974 23.974 23.974Z" stroke="#000" stroke-width="12" stroke-miterlimit="0" stroke-linecap="round" stroke-linejoin="round"/><path d="M121.135 132.306a47.586 47.586 0 0 1-72.986 29.674 47.585 47.585 0 0 1-.515-78.786 47.588 47.588 0 0 1 57.542 2.764M105.176 85.958l3.768-20.256s11.488-3.274 25.047-5.769M121.135 132.306l12.856-72.373M115.005 28.38l-3.573 22.38M115.005 28.38s21.849-6.304 49.473-6.38M164.478 22.003l-3.327 21.574M111.432 50.76s23.592-7.17 49.719-7.183" stroke="#000" stroke-width="12" stroke-miterlimit="0" stroke-linecap="round" stroke-linejoin="round"/></svg>
